X: 7462
T: Cnoc Na bPoll
R: reel
M: 4/4
K: Edorian
dBB2 dBB2|dBBA g2 (3gfe|dBB2 dBB2|AFDF E2FG|
dBB2 dBB2|dBBA g2 (3gfe|dBB2 dBB2|AFDF E2E2||
g2ge faag|edBc d2ef|g2fg edBd|faag edd2|
g2ge faag|edBc d2ef|g2ed BAFG|AFDF FEE2||

